src/xmb/monochrome/Apple - IIGS.svg

<svg xmlns="http://www.w3.org/2000/svg" xml:space="preserve" id="Layer_1" x="0" y="0" version="1.1" viewBox="0 0 64 64"><style>.st0{fill:#fff}</style><path d="M49.97 23.15c0-.64-.52-1.16-1.16-1.16h-33.7c-.64 0-1.16.52-1.16 1.16v3.22h36.01v-3.22zm-22.24 2.48h-5.79v-2.89h5.79z" class="st0"/><path d="m23.75 23.32-1.16.87 1.16.86zm35.71 3.81h-55c-.83 0-1.5.53-1.5 1.18V41c0 .65.67 1.18 1.5 1.18h55c.83 0 1.5-.53 1.5-1.18V28.3c0-.65-.67-1.17-1.5-1.17m-12.39 1.15h2.31v2.31h-2.31zm0 3.47h2.31v2.31h-2.31zm0 3.47h2.31v2.31h-2.31zm-11.24-6.94h2.31v2.31h-2.31zm-3.47 0h2.31v2.31h-2.31zm-3.47 0h2.31v2.31h-2.31zm-3.47 0h2.31v2.31h-2.31zm3.47 3.47v2.31h-2.31v-2.31zm-2.32 3.47v2.31h-2.31v-2.31zm-1.15-1.15H23.1v-2.31h2.31v2.31zm-3.48-5.79h2.31v2.31h-2.31zm1.16 6.94v2.31h-2.31v-2.31zm-1.16-1.15h-2.31v-2.31h2.31zm-3.47-5.79h2.31v2.31h-2.31zm1.16 6.94v2.31h-2.31v-2.31zm-1.16-1.15h-2.31v-2.31h2.31zM15 28.28h2.31v2.31H15zm1.16 6.94v2.31h-2.31v-2.31zm-4.63-6.94h2.31v2.31h-2.31zm-3.47 0h2.31v2.31H8.06zm3.47 3.47v2.31H9.22v-2.31zm-6.94-3.47H6.9v2.31H4.59zm0 3.47h3.47v2.31H4.59zm0 3.47h4.63v2.31H4.59zm2.31 5.79H4.59V38.7H6.9zm5.79 0H8.06V38.7h4.63zm0-3.47h-2.31v-2.31h2.31zm0-5.79H15v2.31h-2.31zm17.35 9.26h-16.2V38.7h16.2zm0-3.47h-2.31v-2.31h2.31zm0-5.79h2.31v2.31h-2.31zm3.48 9.26H31.2V38.7h2.31v2.31zm0-3.47H31.2v-2.31h2.31v2.31zm0-5.79h2.31v2.31h-2.31zm3.47 9.26h-2.31V38.7h2.31zm0-3.47h-2.31v-2.31h2.31zm0-5.79h2.31v2.31h-2.31zm3.47 9.26h-2.31V38.7h2.31zm3.47 0h-2.31V38.7h2.31zm0-3.47h-5.79v-2.31h5.79zm0-3.47h-3.47v-2.31h3.47zm0-3.47H39.3v-2.31h4.63zm8.92 10.41h-5.79V38.7h5.79zm0-3.47h-2.31v-2.31h2.31zm0-3.47h-2.31v-2.31h2.31zm0-3.47h-2.31v-2.31h2.31zm3.48 10.41h-2.31V38.7h2.31zm0-3.47h-2.31v-2.31h2.31zm0-3.47h-2.31v-2.31h2.31zm0-3.47h-2.31v-2.31h2.31zm3.47 10.41h-2.31v-5.79h2.31zm0-6.94h-2.31v-2.31h2.31zm0-3.47h-2.31v-2.31h2.31z" class="st0"/></svg>

<?xml version="1.0" encoding="utf-8"?>
<svg version="1.1" id="Layer_1" xmlns="http://www.w3.org/2000/svg" xmlns:xlink="http://www.w3.org/1999/xlink" x="0px" y="0px"
	 viewBox="0 0 64 64" style="enable-background:new 0 0 64 64;" xml:space="preserve">
<style type="text/css">
	.st0{fill:#FFFFFF;}
</style>
<g>
	<path class="st0" d="M49.97,23.15c0-0.64-0.52-1.16-1.16-1.16h-33.7c-0.64,0-1.16,0.52-1.16,1.16v3.22h36.01V23.15z M27.73,25.63
		h-5.79v-2.89h5.79V25.63z"/>
	<polygon class="st0" points="23.75,23.32 22.59,24.19 23.75,25.05 	"/>
	<path class="st0" d="M59.46,27.13h-55c-0.83,0-1.5,0.53-1.5,1.18v12.69c0,0.65,0.67,1.18,1.5,1.18h55c0.83,0,1.5-0.53,1.5-1.18
		V28.3C60.96,27.65,60.29,27.13,59.46,27.13z M47.07,28.28h2.31v2.31h-2.31V28.28z M47.07,31.75h2.31v2.31h-2.31V31.75z
		 M47.07,35.22h2.31v2.31h-2.31V35.22z M35.83,28.28h2.31v2.31h-2.31V28.28z M32.36,28.28h2.31v2.31h-2.31V28.28z M28.89,28.28h2.31
		v2.31h-2.31V28.28z M25.42,28.28h2.31v2.31h-2.31V28.28z M28.89,31.75v2.31h-2.31v-2.31H28.89z M26.57,35.22v2.31h-2.31v-2.31
		H26.57z M25.42,34.07H23.1v-2.31h2.31V34.07z M21.94,28.28h2.31v2.31h-2.31V28.28z M23.1,35.22v2.31h-2.31v-2.31H23.1z
		 M21.94,34.07h-2.31v-2.31h2.31V34.07z M18.47,28.28h2.31v2.31h-2.31V28.28z M19.63,35.22v2.31h-2.31v-2.31H19.63z M18.47,34.07
		h-2.31v-2.31h2.31V34.07z M15,28.28h2.31v2.31H15V28.28z M16.16,35.22v2.31h-2.31v-2.31H16.16z M11.53,28.28h2.31v2.31h-2.31V28.28
		z M8.06,28.28h2.31v2.31H8.06V28.28z M11.53,31.75v2.31H9.22v-2.31H11.53z M4.59,28.28H6.9v2.31H4.59V28.28z M4.59,31.75h3.47v2.31
		H4.59V31.75z M4.59,35.22h4.63v2.31H4.59V35.22z M6.9,41.01H4.59V38.7H6.9V41.01z M12.69,41.01H8.06V38.7h4.63V41.01z M12.69,37.54
		h-2.31v-2.31h2.31V37.54z M12.69,31.75H15v2.31h-2.31V31.75z M30.04,41.01h-16.2V38.7h16.2V41.01z M30.04,37.54h-2.31v-2.31h2.31
		V37.54z M30.04,31.75h2.31v2.31h-2.31V31.75z M33.52,41.01H31.2V38.7h2.31V41.01z M33.52,37.54H31.2v-2.31h2.31V37.54z
		 M33.52,31.75h2.31v2.31h-2.31V31.75z M36.99,41.01h-2.31V38.7h2.31V41.01z M36.99,37.54h-2.31v-2.31h2.31V37.54z M36.99,31.75
		h2.31v2.31h-2.31V31.75z M40.46,41.01h-2.31V38.7h2.31V41.01z M43.93,41.01h-2.31V38.7h2.31V41.01z M43.93,37.54h-5.79v-2.31h5.79
		V37.54z M43.93,34.07h-3.47v-2.31h3.47V34.07z M43.93,30.6H39.3v-2.31h4.63V30.6z M52.85,41.01h-5.79V38.7h5.79V41.01z
		 M52.85,37.54h-2.31v-2.31h2.31V37.54z M52.85,34.07h-2.31v-2.31h2.31V34.07z M52.85,30.6h-2.31v-2.31h2.31V30.6z M56.33,41.01
		h-2.31V38.7h2.31V41.01z M56.33,37.54h-2.31v-2.31h2.31V37.54z M56.33,34.07h-2.31v-2.31h2.31V34.07z M56.33,30.6h-2.31v-2.31h2.31
		V30.6z M59.8,41.01h-2.31v-5.79h2.31V41.01z M59.8,34.07h-2.31v-2.31h2.31V34.07z M59.8,30.6h-2.31v-2.31h2.31V30.6z"/>
</g>
</svg>
